X: 120
M:4/4s
L:1/8
Q:160
K:C
|: c'2| b2 a2 g2 f2|e2 d2 c2 e2|g2 c'2 g2 e2|e4 d2 c'2 | b2 a2 g2 f2|e2 d2 e2 f2|g2 c'2 b2 g2|c4' c'4:|
|:e2 e2 ed e2| f2 f2 fe f2| e2 e2 ed e2| dcBA g4|e2 e2 ed e2|f2 f2 fe f2|ee c2 d2 B2| c4 c2:|

